X:9
T:Tamm-Kreiz
R:Tamm-Kreiz
C:Trad.
O:France
A:Bretagne
Z:anamnese@caramail.com
M:none
L:1/8
Q:1/4=50
K:C
Ae ee fe dc B3 c de dB c2A2 :| [M:6/8][Q:1/4=180] A2 B c3 | cBA B3 | B2 ee2 d |
 c2 Bc2 A | A2 Bc3 | cBA B3 | B2 ee2 d | c2 BA3 ||
